X:35
M:2/4
L:1/8
K:G
|: G/A/B/A/ G/A/B/A/ | G2 zG | .G2.e2 | d4 | dBBB | cAAA | BGDF | G4 :|
|: DGGG | EGGG | (A>Bc)c | cBAG | DGGG | EGGG | A>GAB | G4 :|
|: G>AB>c | .d2.B2 | .c2.A2 | .B2.G2 | .c2.A2 | .B2.G2 | A>GAB | G4 :|
|: GDDD | E2D2 | Gddd | e2d2 | dDDD | E2 Dc | BG {B}AG/F/ | G4 :|

